icons/type-icons/icons/application-x-powershell.svg

<?xml version="1.0" encoding="UTF-8" standalone="no"?>
<svg
   viewBox="0 0 24 24"
   width="24"
   height="24"
   version="1.1"
   id="svg1"
   sodipodi:docname="application-x-powershell.svg"
   inkscape:version="1.4.3 (0d15f75, 2025-12-25)"
   xmlns:inkscape="http://www.inkscape.org/namespaces/inkscape"
   xmlns:sodipodi="http://sodipodi.sourceforge.net/DTD/sodipodi-0.dtd"
   xmlns="http://www.w3.org/2000/svg"
   xmlns:svg="http://www.w3.org/2000/svg">
  <sodipodi:namedview
     id="namedview1"
     pagecolor="#ffffff"
     bordercolor="#000000"
     borderopacity="0.25"
     inkscape:showpageshadow="2"
     inkscape:pageopacity="0.0"
     inkscape:pagecheckerboard="0"
     inkscape:deskcolor="#d1d1d1"
     inkscape:zoom="19.14827"
     inkscape:cx="32.509465"
     inkscape:cy="14.857739"
     inkscape:window-width="2224"
     inkscape:window-height="1136"
     inkscape:window-x="7"
     inkscape:window-y="33"
     inkscape:window-maximized="0"
     inkscape:current-layer="g1" />
  <defs
     id="defs3051">
    <style
       type="text/css"
       id="current-color-scheme">
      .ColorScheme-Text {
        color:#232629;
      }
      </style>
  </defs>
  <g
     transform="translate(1,1)"
     id="g1">
    <path
       style="fill:#2ecc71;fill-opacity:0.960784;stroke:none"
       d="m 3,3 v 1 11 1 3 h 1 2 8 4 1 V 4 3 Z M 4,4 H 18 V 18 H 14 6 4 v -2 -1 z"
       class="ColorScheme-Text"
       id="path1"
       sodipodi:nodetypes="cccccccccccccccccccccc" />
    <path
       style="fill:#2ecc71;fill-opacity:0.960784;stroke:none;stroke-width:1.5"
       d="M 6.0605466,6.5 5,7.5605469 7.6894521,10.25 5,12.939454 6.0605466,14 9.5000002,10.560547 9.8105466,10.25 9.5000002,9.939453 Z M 11,12.49707 v 1.500001 h 6 V 12.49707 Z"
       class="ColorScheme-Text"
       id="path2"
       sodipodi:nodetypes="cccccccccccccc" />
  </g>
</svg>

<?xml version="1.0" encoding="UTF-8"?>
<svg id="svg1" width="24" height="24" version="1.1" viewBox="0 0 24 24" xmlns="http://www.w3.org/2000/svg">
 <defs id="defs3051">
  <style id="current-color-scheme" type="text/css">.ColorScheme-Text {
        color:#232629;
      }</style>
 </defs>
 <g id="g1" transform="translate(1,1)" fill="#2ecc71" fill-opacity=".96078">
  <path id="path1" class="ColorScheme-Text" d="m3 3v16h16v-16zm1 1h14v14h-14v-3z"/>
  <path id="path2" class="ColorScheme-Text" d="m6.0605 6.5-1.0605 1.0605 2.6895 2.6895-2.6895 2.6895 1.0605 1.0605 3.75-3.75-0.31055-0.31055zm4.9395 5.9971v1.5h6v-1.5z"/>
 </g>
</svg>
